X: 51
T:Eisteddfod Caerfyrddin
T:Carmarthen Eisteddfod
M:6/8
L:1/8
Q:130
S:Various sources
R:Jig
A:Wales
Z:brian_martin12345@yahoo.com
K:G
GBAG2D|G3GBd|ded dBG|BAAA3|B2AG2D|G3GBd|ded dBG|AGAG3:||!
G2DG2B|d3def|gfe dcB|BAA ABA|G2DG2B|d3def|gfe dcB|ded cBA:||

